SVG-Logos/Observability/Grafana/Icons/grafana-pyroscope-icon.svg

<svg xmlns="http://www.w3.org/2000/svg" width="202" height="274" viewBox="0 0 202 274" fill="none">
<g clip-path="url(#clip0_5625_1672)">
<path d="M201.516 173.165C201.516 171.508 201.474 169.862 201.389 168.226C201.368 167.719 201.316 167.223 201.284 166.716C201.21 165.555 201.136 164.384 201.02 163.233C200.967 162.695 200.893 162.178 200.83 161.639C200.703 160.51 200.566 159.391 200.397 158.272C200.323 157.776 200.228 157.291 200.154 156.795C199.964 155.644 199.764 154.494 199.542 153.364C199.521 153.238 199.5 153.111 199.479 152.984C199.416 152.678 199.331 152.372 199.268 152.055C199.015 150.863 198.74 149.67 198.445 148.498C198.35 148.139 198.255 147.781 198.16 147.411C197.822 146.155 197.474 144.91 197.094 143.675C197.009 143.4 196.925 143.126 196.83 142.851C196.407 141.521 195.964 140.202 195.489 138.904C195.426 138.735 195.362 138.556 195.299 138.387C194.771 136.972 194.223 135.568 193.631 134.175C193.621 134.144 193.61 134.112 193.589 134.08C193.579 134.059 193.568 134.027 193.558 134.006C189.093 123.472 183.045 116.052 176.416 107.165L173.503 103.228L147.622 66.9082C147.622 66.9082 135.357 82.8462 118.1 102.647C136.751 49.8302 100.758 0 100.758 0L18.1018 115.651H18.1229C17.8696 116.031 17.6268 116.411 17.3735 116.781C17.3208 116.854 17.268 116.918 17.2258 116.992C17.1519 117.097 17.0885 117.213 17.0147 117.329C16.2758 118.427 15.5581 119.546 14.8614 120.675C14.7031 120.929 14.5448 121.182 14.397 121.446C13.7321 122.554 13.0882 123.673 12.4655 124.802C12.3282 125.056 12.1805 125.298 12.0538 125.552C11.3677 126.818 10.7133 128.095 10.08 129.394C10.0273 129.499 9.97447 129.605 9.9217 129.71C8.5601 132.539 7.32517 135.452 6.22745 138.418C6.09023 138.777 5.97413 139.157 5.83691 139.516C5.44638 140.603 5.07695 141.69 4.72864 142.788C4.57031 143.284 4.42254 143.78 4.27477 144.287C3.97923 145.279 3.69425 146.271 3.41982 147.274C3.27205 147.823 3.13483 148.372 2.99762 148.921C2.75485 149.902 2.52265 150.894 2.31155 151.886C2.22711 152.256 2.13211 152.625 2.05823 152.995C2.01601 153.185 1.9949 153.385 1.95268 153.575C1.74158 154.631 1.56214 155.697 1.38271 156.773C1.29827 157.27 1.20327 157.755 1.12939 158.251C0.897175 159.803 0.69663 161.365 0.52775 162.938C0.50664 163.128 0.496085 163.328 0.48553 163.518C0.348315 164.901 0.242765 166.305 0.16888 167.708C0.137215 168.289 0.12666 168.869 0.10555 169.45C0.06333 170.484 0.031665 171.519 0.02111 172.564C0.02111 172.796 0 173.039 0 173.271C0 173.693 0.031665 174.105 0.031665 174.527C0.04222 175.509 0.06333 176.49 0.10555 177.482C0.12666 178.126 0.16888 178.76 0.200545 179.393C0.23221 179.857 0.23221 180.311 0.27443 180.776C0.31665 181.367 0.390535 181.958 0.44331 182.549C0.496085 183.098 0.538305 183.636 0.601635 184.185C0.728295 185.388 0.88662 186.581 1.0555 187.763C1.10828 188.164 1.16105 188.555 1.22438 188.956C1.43548 190.275 1.66769 191.594 1.93157 192.893C1.97379 193.104 2.00545 193.325 2.04767 193.537C2.05823 193.6 2.07934 193.663 2.08989 193.726C2.38543 195.173 2.72319 196.597 3.08206 198.012C3.12428 198.16 3.15595 198.318 3.18761 198.466C3.98979 201.558 4.93974 204.598 6.0269 207.575C6.35411 208.472 6.71298 209.348 7.06129 210.235C7.27239 210.752 7.46238 211.279 7.68404 211.797C7.76848 211.997 7.84236 212.208 7.9268 212.409C8.30678 213.306 8.71843 214.182 9.13007 215.058C9.25673 215.333 9.37284 215.607 9.4995 215.871C10.0695 217.085 10.6711 218.277 11.2833 219.46C11.3361 219.576 11.3994 219.681 11.4522 219.797C13.2043 223.143 15.1253 226.394 17.2258 229.508C20.8461 234.87 24.9837 239.862 29.5434 244.422C34.1032 248.982 39.0957 253.109 44.4577 256.729C46.4842 258.101 48.5847 259.368 50.7062 260.592C50.759 260.624 50.8118 260.656 50.8645 260.687C52.0256 261.352 53.1972 261.996 54.3794 262.608C54.6327 262.735 54.886 262.872 55.1393 262.999C56.1737 263.527 57.2081 264.033 58.253 264.529C58.7175 264.751 59.1924 264.962 59.6674 265.173C60.3007 265.458 60.9235 265.764 61.5568 266.028C61.7995 266.134 62.0528 266.218 62.3062 266.324C63.0556 266.63 63.8155 266.925 64.5649 267.221C65.2088 267.474 65.8526 267.728 66.5071 267.97C67.8264 268.445 69.1564 268.899 70.4968 269.321C70.613 269.364 70.7291 269.406 70.8452 269.438C77.0832 271.38 83.5639 272.731 90.2347 273.417C90.4775 273.438 90.7097 273.459 90.9524 273.48C91.8602 273.565 92.7679 273.67 93.6862 273.733C93.9712 273.755 94.2562 273.733 94.5411 273.755C96.5888 273.881 98.647 273.966 100.737 273.966C100.98 273.966 101.222 273.945 101.465 273.945C102.046 273.945 102.626 273.913 103.207 273.902C105.254 273.85 107.281 273.744 109.297 273.575C109.751 273.533 110.215 273.512 110.669 273.47C112.949 273.248 115.197 272.931 117.424 272.562C118.058 272.456 118.702 272.34 119.335 272.224C119.894 272.118 120.454 272.034 121.013 271.918C122.66 271.58 124.296 271.2 125.911 270.789C126.28 270.694 126.639 270.577 127.008 270.472C128.887 269.965 130.745 269.395 132.581 268.783C133.225 268.572 133.88 268.361 134.513 268.129C136.339 267.485 138.144 266.799 139.917 266.039C140.075 265.975 140.234 265.891 140.392 265.828C141.036 265.553 141.68 265.247 142.313 264.962C143.812 264.287 145.279 263.569 146.736 262.82C147.358 262.503 147.992 262.197 148.604 261.859C150.24 260.972 151.844 260.022 153.427 259.051L132.719 230.015C123.082 235.63 111.904 238.86 99.9664 238.86C63.9633 238.86 34.6732 209.57 34.6732 173.566C34.6732 137.563 63.9633 108.273 99.9664 108.273C135.97 108.273 165.26 137.563 165.26 173.566C165.26 191.288 158.146 207.374 146.641 219.154L167.582 248.528C167.867 248.275 168.152 248.032 168.437 247.779L168.458 247.8C174.4 242.406 179.667 236.295 184.185 229.635C184.206 229.603 184.238 229.571 184.259 229.529C184.259 229.519 184.28 229.497 184.28 229.487C185.114 228.262 185.905 227.006 186.686 225.74C186.781 225.581 186.876 225.434 186.971 225.275C187.7 224.083 188.386 222.869 189.061 221.644C189.198 221.402 189.325 221.159 189.462 220.927C190.096 219.755 190.697 218.573 191.278 217.38C191.436 217.064 191.584 216.747 191.742 216.43C192.291 215.29 192.808 214.129 193.315 212.968C193.389 212.789 193.484 212.609 193.558 212.43C193.642 212.219 193.726 212.008 193.811 211.797C194.275 210.678 194.719 209.559 195.141 208.419C195.32 207.955 195.479 207.48 195.647 207.005C196.038 205.918 196.407 204.83 196.756 203.733C196.925 203.184 197.094 202.635 197.252 202.086C197.569 201.041 197.875 199.996 198.149 198.93C198.318 198.297 198.466 197.664 198.624 197.02C198.867 196.017 199.11 195.014 199.321 194.001C199.352 193.843 199.395 193.695 199.426 193.537C199.542 192.967 199.627 192.386 199.732 191.816C199.912 190.866 200.091 189.927 200.239 188.977C200.376 188.132 200.471 187.267 200.587 186.412C200.703 185.557 200.83 184.702 200.914 183.836C201.02 182.792 201.094 181.725 201.168 180.67C201.221 179.984 201.294 179.298 201.326 178.601C201.421 176.87 201.463 175.129 201.463 173.376C201.463 173.345 201.463 173.313 201.463 173.271C201.463 173.271 201.463 173.208 201.463 173.176L201.516 173.165ZM99.9875 125.911C73.7161 125.911 52.3422 147.284 52.3422 173.556C52.3422 199.827 73.7161 221.201 99.9875 221.201C126.259 221.201 147.633 199.827 147.633 173.556C147.633 147.284 126.259 125.911 99.9875 125.911Z" fill="url(#paint0_linear_5625_1672)"/>
<path d="M66.7076 173.799H60.5329C60.5329 152.203 78.107 134.629 99.7025 134.629V140.804C81.5057 140.804 66.7076 155.602 66.7076 173.799Z" fill="white"/>
</g>
<defs>
<linearGradient id="paint0_linear_5625_1672" x1="100.758" y1="336.008" x2="100.758" y2="7.3885" gradientUnits="userSpaceOnUse">
<stop stop-color="#FFEF00"/>
<stop offset="1" stop-color="#ED5A27"/>
</linearGradient>
<clipPath id="clip0_5625_1672">
<rect width="202" height="274" fill="white"/>
</clipPath>
</defs>
</svg>

<svg xmlns="http://www.w3.org/2000/svg" fill="none" viewBox="0 0 202 274"><g clip-path="url(#a)"><path fill="url(#b)" d="M201.516 173.165c0-1.657-.042-3.303-.127-4.939-.021-.507-.073-1.003-.105-1.51-.074-1.161-.148-2.332-.264-3.483-.053-.538-.127-1.055-.19-1.594a89.483 89.483 0 0 0-.433-3.367c-.074-.496-.169-.981-.243-1.477-.19-1.151-.39-2.301-.612-3.431l-.063-.38c-.063-.306-.148-.612-.211-.929a97.817 97.817 0 0 0-.823-3.557c-.095-.359-.19-.717-.285-1.087a109.03 109.03 0 0 0-1.066-3.736c-.085-.275-.169-.549-.264-.824a97.312 97.312 0 0 0-1.341-3.947l-.19-.517a101.205 101.205 0 0 0-1.668-4.212.374.374 0 0 0-.042-.095c-.01-.021-.021-.053-.031-.074-4.465-10.534-10.513-17.954-17.142-26.841l-2.913-3.937-25.881-36.32s-12.265 15.938-29.522 35.739C136.751 49.83 100.758 0 100.758 0L18.102 115.651h.02c-.252.38-.495.76-.748 1.13-.053.073-.106.137-.148.211-.074.105-.137.221-.211.337a100.99 100.99 0 0 0-2.154 3.346c-.158.254-.316.507-.464.771a106.232 106.232 0 0 0-1.931 3.356c-.138.254-.285.496-.412.75a100.245 100.245 0 0 0-1.974 3.842l-.158.316a100.672 100.672 0 0 0-3.695 8.708c-.137.359-.253.739-.39 1.098a91.422 91.422 0 0 0-1.108 3.272c-.159.496-.306.992-.454 1.499-.296.992-.58 1.984-.855 2.987a94.204 94.204 0 0 0-.422 1.647 92.622 92.622 0 0 0-.686 2.965c-.085.37-.18.739-.254 1.109-.042.19-.063.39-.105.58-.211 1.056-.39 2.122-.57 3.198-.085.497-.18.982-.254 1.478a113.662 113.662 0 0 0-.601 4.687c-.021.19-.032.39-.042.58a91.037 91.037 0 0 0-.317 4.19c-.032.581-.042 1.161-.063 1.742a101.243 101.243 0 0 0-.085 3.114c0 .232-.021.475-.021.707 0 .422.032.834.032 1.256.01.982.031 1.963.074 2.955.02.644.063 1.278.095 1.911.031.464.031.918.073 1.383.043.591.117 1.182.17 1.773.052.549.094 1.087.158 1.636.126 1.203.285 2.396.454 3.578.052.401.105.792.168 1.193.211 1.319.444 2.638.708 3.937.042.211.073.432.116.644.01.063.031.126.042.189.295 1.447.633 2.871.992 4.286.042.148.074.306.106.454a99.13 99.13 0 0 0 2.839 9.109c.327.897.686 1.773 1.034 2.66.211.517.401 1.044.623 1.562.084.2.158.411.243.612.38.897.791 1.773 1.203 2.649.127.275.243.549.37.813a103.8 103.8 0 0 0 1.783 3.589c.053.116.116.221.17.337a101.855 101.855 0 0 0 5.773 9.711 101.215 101.215 0 0 0 12.317 14.914 101.1 101.1 0 0 0 14.915 12.307c2.026 1.372 4.127 2.639 6.248 3.863l.158.095a94.458 94.458 0 0 0 3.515 1.921c.254.127.507.264.76.391 1.035.528 2.07 1.034 3.114 1.53.465.222.94.433 1.414.644.634.285 1.256.591 1.89.855.242.106.496.19.75.296.749.306 1.508.601 2.258.897.644.253 1.288.507 1.942.749 1.32.475 2.65.929 3.99 1.351.116.043.232.085.348.117a99.376 99.376 0 0 0 19.39 3.979l.717.063c.908.085 1.816.19 2.734.253.285.022.57 0 .855.022 2.048.126 4.106.211 6.196.211.243 0 .485-.021.728-.021.581 0 1.161-.032 1.742-.043 2.047-.052 4.074-.158 6.09-.327.454-.042.918-.063 1.372-.105a101.4 101.4 0 0 0 6.755-.908c.634-.106 1.278-.222 1.911-.338.559-.106 1.119-.19 1.678-.306a107.54 107.54 0 0 0 4.898-1.129c.369-.095.728-.212 1.097-.317a100.09 100.09 0 0 0 5.573-1.689c.644-.211 1.299-.422 1.932-.654a87.924 87.924 0 0 0 5.404-2.09c.158-.064.317-.148.475-.211.644-.275 1.288-.581 1.921-.866a94.83 94.83 0 0 0 4.423-2.142c.622-.317 1.256-.623 1.868-.961 1.636-.887 3.24-1.837 4.823-2.808l-20.708-29.036a64.835 64.835 0 0 1-32.753 8.845c-36.003 0-65.293-29.29-65.293-65.294 0-36.003 29.29-65.293 65.293-65.293 36.004 0 65.294 29.29 65.294 65.293 0 17.722-7.114 33.808-18.619 45.588l20.941 29.374c.285-.253.57-.496.855-.749l.021.021c5.942-5.394 11.209-11.505 15.727-18.165.021-.032.053-.064.074-.106 0-.01.021-.032.021-.042a99.032 99.032 0 0 0 2.406-3.747c.095-.159.19-.306.285-.465a92.495 92.495 0 0 0 2.09-3.631c.137-.242.264-.485.401-.717a93.285 93.285 0 0 0 1.816-3.547c.158-.316.306-.633.464-.95.549-1.14 1.066-2.301 1.573-3.462.074-.179.169-.359.243-.538l.253-.633a93.935 93.935 0 0 0 1.33-3.378c.179-.464.338-.939.506-1.414.391-1.087.76-2.175 1.109-3.272.169-.549.338-1.098.496-1.647.317-1.045.623-2.09.897-3.156.169-.633.317-1.266.475-1.91.243-1.003.486-2.006.697-3.019.031-.158.074-.306.105-.464.116-.57.201-1.151.306-1.721.18-.95.359-1.889.507-2.839.137-.845.232-1.71.348-2.565.116-.855.243-1.71.327-2.576.106-1.044.18-2.111.254-3.166.053-.686.126-1.372.158-2.069.095-1.731.137-3.472.137-5.225v-.2l.053-.011ZM99.988 125.911c-26.272 0-47.646 21.373-47.646 47.645 0 26.271 21.374 47.645 47.645 47.645 26.272 0 47.646-21.374 47.646-47.645 0-26.272-21.374-47.645-47.646-47.645Z"/><path fill="#fff" d="M66.708 173.799h-6.175c0-21.596 17.574-39.17 39.17-39.17v6.175c-18.197 0-32.995 14.798-32.995 32.995Z"/></g><defs><linearGradient id="b" x1="100.758" x2="100.758" y1="336.008" y2="7.388" gradientUnits="userSpaceOnUse"><stop stop-color="#FFEF00"/><stop offset="1" stop-color="#ED5A27"/></linearGradient><clipPath id="a"><path fill="#fff" d="M0 0h202v274H0z"/></clipPath></defs></svg>
